SF_Symbols/hand.wave.fill.svg

<?xml version="1.0" encoding="UTF-8"?>
<svg xmlns="http://www.w3.org/2000/svg" xmlns:xlink="http://www.w3.org/1999/xlink" width="24" height="24" viewBox="0 0 24 24" version="1.1">
<g id="surface1">
<path style=" stroke:none;fill-rule:nonzero;fill:rgb(100%,100%,100%);fill-opacity:1;" d="M 9 20.976562 C 9.914062 21.882812 10.871094 22.554688 11.871094 22.992188 C 12.871094 23.429688 13.875 23.644531 14.882812 23.636719 C 15.898438 23.628906 16.882812 23.410156 17.835938 22.980469 C 18.789062 22.558594 19.675781 21.9375 20.496094 21.117188 C 21.816406 19.796875 22.625 18.433594 22.921875 17.027344 C 23.226562 15.613281 23.101562 14.078125 22.546875 12.421875 C 22.398438 11.960938 22.226562 11.492188 22.03125 11.015625 C 21.835938 10.539062 21.621094 10.050781 21.386719 9.550781 C 21.152344 9.050781 20.898438 8.539062 20.625 8.015625 C 20.359375 7.484375 20.074219 6.9375 19.769531 6.375 C 19.613281 6.070312 19.445312 5.75 19.265625 5.414062 C 19.09375 5.078125 18.925781 4.773438 18.761719 4.5 C 18.597656 4.21875 18.449219 4.011719 18.316406 3.878906 C 18.097656 3.652344 17.84375 3.546875 17.554688 3.5625 C 17.273438 3.570312 17.015625 3.691406 16.78125 3.925781 C 16.515625 4.183594 16.378906 4.492188 16.371094 4.851562 C 16.371094 5.203125 16.472656 5.675781 16.675781 6.269531 L 17.941406 9.832031 C 18.019531 10.019531 18.054688 10.175781 18.046875 10.300781 C 18.039062 10.417969 18 10.511719 17.929688 10.582031 C 17.84375 10.667969 17.746094 10.710938 17.636719 10.710938 C 17.527344 10.703125 17.394531 10.625 17.238281 10.476562 L 8.566406 1.78125 C 8.316406 1.539062 8.015625 1.417969 7.664062 1.417969 C 7.320312 1.417969 7.027344 1.539062 6.785156 1.78125 C 6.542969 2.03125 6.421875 2.332031 6.421875 2.683594 C 6.421875 3.027344 6.542969 3.320312 6.785156 3.5625 L 12.996094 9.773438 C 12.847656 9.84375 12.691406 9.925781 12.527344 10.019531 C 12.371094 10.113281 12.214844 10.210938 12.058594 10.3125 L 4.851562 3.105469 C 4.609375 2.855469 4.3125 2.730469 3.960938 2.730469 C 3.609375 2.730469 3.3125 2.855469 3.070312 3.105469 C 2.828125 3.347656 2.707031 3.644531 2.707031 3.996094 C 2.707031 4.339844 2.828125 4.636719 3.070312 4.886719 L 10.183594 12 C 10.066406 12.140625 9.949219 12.285156 9.832031 12.433594 C 9.722656 12.582031 9.617188 12.734375 9.515625 12.890625 L 3 6.363281 C 2.75 6.121094 2.449219 6 2.097656 6 C 1.753906 6 1.460938 6.121094 1.21875 6.363281 C 0.976562 6.613281 0.855469 6.914062 0.855469 7.265625 C 0.855469 7.609375 0.976562 7.902344 1.21875 8.144531 L 8.308594 15.222656 C 8.230469 15.417969 8.164062 15.617188 8.109375 15.820312 C 8.0625 16.015625 8.019531 16.207031 7.980469 16.394531 L 3.058594 11.472656 C 2.816406 11.222656 2.519531 11.097656 2.167969 11.097656 C 1.824219 11.097656 1.527344 11.222656 1.277344 11.472656 C 1.035156 11.714844 0.914062 12.011719 0.914062 12.363281 C 0.914062 12.707031 1.035156 13.003906 1.277344 13.253906 Z M 9 20.976562 "/>
</g>
</svg>

<svg xmlns="http://www.w3.org/2000/svg" width="24" height="24"><path style="stroke:none;fill-rule:nonzero;fill:#fff;fill-opacity:1" d="M9 20.977c.914.906 1.871 1.578 2.871 2.015 1 .438 2.004.653 3.012.645a7.265 7.265 0 0 0 2.953-.657c.953-.421 1.84-1.043 2.66-1.863 1.32-1.32 2.129-2.683 2.426-4.09.305-1.414.18-2.949-.375-4.605-.149-.461-.32-.93-.516-1.406-.195-.477-.41-.965-.644-1.465a40.017 40.017 0 0 0-.762-1.535 65.337 65.337 0 0 0-.855-1.641c-.165-.32-.332-.64-.504-.96-.172-.337-.34-.642-.504-.915a3.164 3.164 0 0 0-.446-.621c-.218-.227-.472-.332-.761-.317-.282.008-.54.13-.774.364a1.281 1.281 0 0 0-.41.926c0 .351.102.824.305 1.418l1.265 3.562c.079.188.114.344.106.469a.426.426 0 0 1-.41.41c-.11-.008-.242-.086-.399-.234L8.566 1.78a1.24 1.24 0 0 0-.902-.363c-.344 0-.637.121-.879.363a1.25 1.25 0 0 0-.363.903c0 .343.121.636.363.878l6.211 6.211c-.324.153-.64.336-.937.54L4.852 3.104a1.184 1.184 0 0 0-.891-.375c-.352 0-.648.125-.89.375-.243.243-.364.54-.364.891 0 .344.121.64.363.89L10.184 12c-.118.14-.235.285-.352.434-.11.148-.215.3-.316.457L3 6.363A1.257 1.257 0 0 0 2.098 6c-.344 0-.637.121-.88.363a1.24 1.24 0 0 0-.363.903c0 .343.122.636.364.879l7.09 7.078a5.36 5.36 0 0 0-.2.597c-.046.196-.09.387-.129.575L3.06 11.473a1.184 1.184 0 0 0-.891-.375c-.344 0-.64.125-.89.375-.243.242-.364.539-.364.89 0 .344.121.64.363.89Zm0 0"/></svg>
